src/assets/filled/Scissor1.svg

<svg width="24" height="24" viewBox="0 0 24 24"  xmlns="http://www.w3.org/2000/svg">
<path d="M5.5 10C7.433 10 9 8.433 9 6.5C9 4.567 7.433 3 5.5 3C3.567 3 2 4.567 2 6.5C2 8.433 3.567 10 5.5 10Z" />
<path d="M5.5 21C7.433 21 9 19.433 9 17.5C9 15.567 7.433 14 5.5 14C3.567 14 2 15.567 2 17.5C2 19.433 3.567 21 5.5 21Z" />
<path d="M15.2501 11.9798L22.4501 6.59978C22.7801 6.34978 22.8501 5.87978 22.6001 5.54978C22.3501 5.21978 21.8801 5.14978 21.5501 5.39978L14.0001 11.0498L8.45008 6.88978C8.12008 6.64978 7.65008 6.70978 7.40008 7.03978C7.15008 7.36978 7.22008 7.83978 7.55008 8.08978L12.7501 11.9798L6.85008 16.3998C6.52008 16.6498 6.45008 17.1198 6.70008 17.4498C6.85008 17.6498 7.07008 17.7498 7.30008 17.7498C7.46008 17.7498 7.61008 17.6998 7.75008 17.5998L14.0001 12.9198L21.5501 18.5698C21.6801 18.6698 21.8401 18.7198 22.0001 18.7198C22.2301 18.7198 22.4501 18.6198 22.6001 18.4198C22.8501 18.0898 22.7801 17.6198 22.4501 17.3698L15.2501 11.9798Z" />
</svg>

<?xml version="1.0" encoding="UTF-8"?>
<svg width="24" height="24" viewBox="0 0 24 24" xmlns="http://www.w3.org/2000/svg">
 <path d="m5.5 10c1.933 0 3.5-1.567 3.5-3.5s-1.567-3.5-3.5-3.5-3.5 1.567-3.5 3.5 1.567 3.5 3.5 3.5z"/>
 <path d="m5.5 21c1.933 0 3.5-1.567 3.5-3.5s-1.567-3.5-3.5-3.5-3.5 1.567-3.5 3.5 1.567 3.5 3.5 3.5z"/>
 <path d="m15.25 11.98 7.2-5.38c0.33-0.25 0.4-0.72 0.15-1.05s-0.72-0.4-1.05-0.15l-7.55 5.65-5.55-4.16c-0.33-0.24-0.8-0.18-1.05 0.15s-0.18 0.8 0.15 1.05l5.2 3.89-5.9 4.42c-0.33 0.25-0.4 0.72-0.15 1.05 0.15 0.2 0.37 0.3 0.6 0.3 0.16 0 0.31-0.05 0.45-0.15l6.25-4.68 7.55 5.65c0.13 0.1 0.29 0.15 0.45 0.15 0.23 0 0.45-0.1 0.6-0.3 0.25-0.33 0.18-0.8-0.15-1.05l-7.2-5.39z"/>
</svg>
